azure-patterns/svg-megaphone.svg

<svg xmlns="http://www.w3.org/2000/svg" viewBox="0 0 156 156">
                                
                            
<path d="M127.896 28.1047L122.646 33.3543C128.44 39.1485 132.996 45.9085 136.191 53.4362C139.484 61.2114 141.143 69.4819 141.143 78C141.143 86.5181 139.484 94.7885 136.191 102.564C133.021 110.091 128.465 116.827 122.646 122.646L127.896 127.895C140.673 115.143 148.572 97.4876 148.572 78C148.572 58.5124 140.673 40.8571 127.896 28.1047Z" fill="#50E6FF"></path>
<path d="M82.4574 38.9504C81.6155 37.7866 80.6993 37.1428 79.7831 37.1428C79.4364 37.1428 79.0897 37.2419 78.7431 37.4152C78.6936 37.44 78.644 37.4895 78.5945 37.5143C78.4707 37.6133 78.3221 37.6876 78.1983 37.7866C78.1488 37.8114 78.124 37.8609 78.0745 37.8857C74.5336 40.9066 71.7355 53.0895 70.9183 68.739C73.2955 68.7885 75.4497 69.779 77.0345 71.3638C78.6688 72.9981 79.6593 75.2266 79.6593 77.7276C79.6593 80.3771 78.5202 82.7295 76.7126 84.3885C75.1774 85.8 73.1221 86.6666 70.8936 86.7162C71.6612 102.663 74.484 115.118 78.0745 118.189C78.2231 118.312 78.3717 118.436 78.545 118.535C78.9412 118.783 79.3621 118.907 79.7831 118.907C80.724 118.907 81.6155 118.263 82.4574 117.099C84.884 113.731 86.8897 105.857 87.9793 95.6552C88.5488 90.3314 88.8707 84.3638 88.8707 78.0495C88.8707 71.7352 88.5488 65.7923 87.9793 60.4438C86.8897 50.1923 84.9088 42.3181 82.4574 38.9504Z" fill="#50E6FF"></path>
<path d="M85.8 37.7618C85.9238 37.6627 86.0229 37.5884 86.1467 37.5142L85.28 37.7865C85.4038 37.8113 85.5276 37.8361 85.6515 37.8608C85.701 37.8361 85.7505 37.7865 85.8 37.7618Z" fill="white"></path>
<path d="M86.3448 37.4153C86.2705 37.44 86.221 37.4896 86.1467 37.5143L86.1963 37.4896C86.2458 37.4648 86.2953 37.44 86.3448 37.4153Z" fill="white"></path>
<path d="M86.1962 37.5142L86.1467 37.5389C86.0229 37.6132 85.8991 37.6875 85.8 37.7865C85.9486 37.6875 86.0724 37.5884 86.1962 37.5142Z" fill="white"></path>
<path d="M85.28 118.213L85.9238 118.411C85.8 118.337 85.6762 118.238 85.5524 118.164C85.4534 118.189 85.3791 118.189 85.28 118.213Z" fill="white"></path>
<path d="M14.6838 96.5713C14.7086 96.5961 14.7581 96.5713 14.7829 96.5713C14.7334 96.5961 14.7086 96.5961 14.6838 96.5713Z" fill="white"></path>
<path d="M14.1143 96.5466C14.2876 96.5714 14.4857 96.5962 14.6838 96.5962V96.5714C14.4857 96.5714 14.3124 96.5466 14.1143 96.5466Z" fill="white"></path>
<path d="M70.918 86.6666C73.1713 86.6171 75.2018 85.7504 76.737 84.339C78.5447 82.7047 79.6837 80.3275 79.6837 77.678C79.6837 75.2018 78.6685 72.9485 77.0589 71.3142C75.4742 69.7294 73.3199 68.739 70.9428 68.6894C71.7599 53.0399 74.558 40.8571 78.0989 37.8361C78.1485 37.8113 78.1732 37.7618 78.2228 37.7371C78.1732 37.7618 78.1237 37.7866 78.0742 37.8361C65.3218 46.0818 51.1085 52.3218 35.9294 56.0361C32.8094 56.8037 29.6399 57.4475 26.4456 57.9923C22.7313 58.6361 18.9675 59.1066 15.1789 59.4533C15.0304 59.4285 14.857 59.4037 14.7085 59.4037C14.3866 59.4037 14.0894 59.4533 13.7675 59.5523C10.177 60.7656 7.42847 68.5656 7.42847 78.0247C7.42847 87.8056 10.3751 95.8285 14.1142 96.5466C14.3123 96.5713 14.4856 96.5713 14.6837 96.5961C14.7085 96.5961 14.758 96.5961 14.7828 96.5961C18.7199 96.9428 22.6323 97.438 26.4704 98.0818C29.6894 98.6266 32.8589 99.2952 35.9789 100.063C36.3008 100.137 36.6228 100.236 36.9447 100.31V133.714H51.8018V104.966C61.0132 108.457 69.7789 112.889 77.9256 118.164C78.0494 118.238 78.1732 118.337 78.297 118.411L78.5199 118.486C78.3713 118.387 78.198 118.288 78.0494 118.139C74.5085 115.093 71.6608 102.613 70.918 86.6666Z" fill="#0078D4"></path>
<path d="M118.857 77.9999C118.857 66.5599 114.871 56.0361 108.21 47.7656L102.935 53.0399C108.432 60.1713 111.429 68.8628 111.429 77.9999C111.429 87.1371 108.457 95.8037 102.96 102.935L108.234 108.209C114.871 99.939 118.857 89.4399 118.857 77.9999Z" fill="#50E6FF"></path>
</svg>

<svg xmlns="http://www.w3.org/2000/svg" viewBox="0 0 156 156"><path d="M127.896 28.105l-5.25 5.25a63.192 63.192 0 0 1 13.545 20.081c3.293 7.775 4.952 16.046 4.952 24.564s-1.659 16.788-4.952 24.564c-3.17 7.527-7.726 14.263-13.545 20.082l5.25 5.249c12.777-12.752 20.676-30.407 20.676-49.895 0-19.488-7.899-37.143-20.676-49.895zM82.457 38.95c-.841-1.163-1.758-1.807-2.674-1.807-.347 0-.693.099-1.04.272-.05.025-.099.075-.148.1-.124.098-.273.173-.397.272-.05.024-.074.074-.123.099-3.541 3.02-6.34 15.203-7.157 30.853a8.89 8.89 0 0 1 6.116 2.625 8.92 8.92 0 0 1 2.625 6.364c0 2.65-1.139 5.002-2.946 6.66a8.886 8.886 0 0 1-5.82 2.328c.768 15.947 3.591 28.402 7.181 31.473.15.123.298.247.471.346.396.248.817.372 1.238.372.941 0 1.832-.644 2.674-1.808 2.427-3.368 4.433-11.242 5.522-21.444.57-5.324.892-11.291.892-17.606 0-6.314-.322-12.257-.892-17.605-1.09-10.252-3.07-18.126-5.522-21.494z" fill="#50E6FF"/><path d="M85.8 37.762c.124-.1.223-.174.347-.248l-.867.272.371.075c.05-.025.1-.075.149-.1zM86.345 37.415c-.075.025-.124.075-.198.1l.05-.025.148-.075zM86.196 37.514l-.05.025c-.123.074-.247.148-.346.247.149-.099.272-.198.396-.272zM85.28 118.213l.644.198c-.124-.074-.248-.173-.372-.247-.099.025-.173.025-.272.049zM14.684 96.571c.025.025.074 0 .099 0-.05.025-.074.025-.1 0z" fill="#fff"/><path d="M14.114 96.547c.174.024.372.05.57.05v-.026c-.198 0-.372-.024-.57-.024z" fill="#fff"/><path d="M70.918 86.667a8.835 8.835 0 0 0 5.819-2.328 8.952 8.952 0 0 0 2.947-6.661 9.068 9.068 0 0 0-2.625-6.364 8.89 8.89 0 0 0-6.116-2.625c.817-15.65 3.615-27.832 7.156-30.853.05-.025.074-.074.124-.099-.05.025-.1.05-.149.1-12.752 8.245-26.965 14.485-42.145 18.2-3.12.767-6.29 1.41-9.483 1.955-3.715.644-7.479 1.115-11.267 1.461a3.028 3.028 0 0 0-.47-.05c-.322 0-.62.05-.941.15-3.591 1.213-6.34 9.013-6.34 18.472 0 9.78 2.947 17.803 6.686 18.522.198.024.372.024.57.05h.099c3.937.346 7.85.841 11.687 1.485 3.22.545 6.389 1.213 9.509 1.981.322.074.644.173.966.247v33.404h14.857v-28.748a138.17 138.17 0 0 1 26.124 13.198c.123.074.247.173.371.247l.223.075c-.149-.099-.322-.198-.47-.347-3.541-3.046-6.39-15.526-7.132-31.472z" fill="#0078D4"/><path d="M118.857 78a48.05 48.05 0 0 0-10.647-30.234l-5.275 5.274c5.497 7.131 8.494 15.823 8.494 24.96s-2.972 17.804-8.469 24.935l5.274 5.274c6.637-8.27 10.623-18.77 10.623-30.21z" fill="#50E6FF"/></svg>
